X: 120019
T: The BANKS O' CLYDE
Q: "Highland Schottische."
R: Schottische.
%R: shottish
B: James Kerr "Merry Melodies" v.1 p.20 s.0 #19
Z: 2017 John Chambers <jc:trillian.mit.edu>
M: C
L: 1/8
K: G
z |\
vG>vB (d<g) e2d2 | ve>vguf>ua g>ed>B |\
G>B (d<g) e2d2 | e>a (f<d) g2g :|\
ua |\
vb>va (g<b) va>vf d2 | ve>uc G<g vd>vB G2 |
vb>va (g<b) a>f d2 | e>a (f<d) g2 g>a |\
b>a (g<b) a>f d2 | e>c G<g d>BA>B |\
G>B (d<g) e>fg>a | b>g (f<a) g2g |]

% %newpage
%%sep 1 1 500
%%sep 1 1 500
%%center COUNTRY DANCES

%%sep 1 1 500
%%sep 1 1 500

